images/seat1.svg

<svg width="70" height="35" viewBox="0 0 70 35" fill="none" xmlns="http://www.w3.org/2000/svg">
<path fill-rule="evenodd" clip-rule="evenodd" d="M15.8435 11.1014H27.3317C29.9401 11.1014 32.0738 13.2351 32.0738 15.8435V27.3317C32.0738 29.9401 29.9401 32.0738 27.3317 32.0738H15.8435C13.2351 32.0738 11.1014 29.9401 11.1014 27.3317V15.8435C11.1014 13.2351 13.2351 11.1014 15.8435 11.1014ZM69.3966 11.8166V31.3502C69.3966 33.1376 67.9471 34.587 66.1598 34.587C64.3724 34.587 62.923 33.1376 62.923 31.3502V11.8166C62.923 10.3255 62.3364 8.97727 61.3915 8.00743C60.4693 7.06139 59.1995 6.47354 57.8037 6.47354H11.5929C10.197 6.47354 8.92729 7.06139 8.00505 8.00743C7.0602 8.97727 6.47354 10.3255 6.47354 11.8166V31.3502C6.47354 33.1376 5.02413 34.587 3.23677 34.587C1.44941 34.587 0 33.1376 0 31.3502V11.8166C0 8.58815 1.29352 5.64649 3.37719 3.5069C5.48466 1.3435 8.39299 0 11.5929 0H57.8037C61.0036 0 63.9119 1.3435 66.0194 3.5069C68.103 5.64649 69.3966 8.58934 69.3966 11.8166ZM42.0601 11.1014H53.5483C56.1567 11.1014 58.2904 13.2351 58.2904 15.8435V27.3317C58.2904 29.9401 56.1567 32.0738 53.5483 32.0738H42.0601C39.4517 32.0738 37.318 29.9401 37.318 27.3317V15.8435C37.318 13.2351 39.4517 11.1014 42.0601 11.1014Z" fill="white"/>
</svg>

<svg width="70" height="35" fill="none" xmlns="http://www.w3.org/2000/svg"><path fill-rule="evenodd" clip-rule="evenodd" d="M15.844 11.101h11.488a4.756 4.756 0 014.742 4.742v11.489a4.756 4.756 0 01-4.742 4.742H15.843a4.756 4.756 0 01-4.742-4.742V15.843a4.756 4.756 0 014.742-4.742zm53.553.716V31.35a3.237 3.237 0 01-6.474 0V11.817c0-1.492-.587-2.84-1.532-3.81a5.003 5.003 0 00-3.587-1.533H11.593a5.003 5.003 0 00-3.588 1.533 5.444 5.444 0 00-1.531 3.81V31.35a3.237 3.237 0 01-6.474 0V11.817c0-3.229 1.294-6.17 3.377-8.31C5.485 1.343 8.393 0 11.593 0h46.21c3.2 0 6.109 1.343 8.216 3.507a11.897 11.897 0 013.378 8.31zM42.06 11.1h11.488a4.756 4.756 0 014.742 4.742v11.489a4.756 4.756 0 01-4.742 4.742H42.06a4.756 4.756 0 01-4.742-4.742V15.843a4.756 4.756 0 014.742-4.742z" fill="#fff"/></svg>
